X: 1588
T: Pür-ateşim
C: Dede Efendi
O: Turkey
F: http://compmusic.upf.edu/node/140
N: ussak--sarki--agir_aksaksemai--pur-atesim--dede_efendi
N: makam= ussak
N: form= sarki
N: usul= agir_aksaksemai = 10/4
M: 10/4
L: 1/16
K: C _2/4B   
Q: 1/4=69
%%MIDI tuningsystem comma53
z2G4A2 A4 A_1/4BAG A2B2 c3B edcB ABc4BA A4  | 
w:   | 
d3e c3d _1/4BAG2 c6cB B3A A2_BA d^cBA AGG^F G4  | 
w:   | 
G3_1/4B A3c B3d c2de fede d2cB edcB BABA A4 Afed  | 
w:   | 
c2d4c_1/4B A4 e2f4fe e3d d2a2 agfe d2cB A4  | 
w:   | 
A2f2 f2fe f4 c2f2 f2fe e3d agfe e3d dccd e3d  | 
w:   | 
dccd e3d dccd efga gfed dcc_1/4B edcd dcBA B2c2 B4  | 
w:   | 
g2fe d2a2 aggf feed dcc_1/4B eded dccB BABA A4 Afed  | 
w:   | 
c2d4c_1/4B A4 d2_e4ed d3^c g2g2 _bag^f feed d4  | 
w:   | 
^c2d4d2 d4 _edcd c2d2 e3d g2g2 _bag^f feed d4  | 
w:   | 
d2g2 g2g^f g4 c2g2 gagf g4 c'2_ba aggf edgf f4  | 
w:   | 
g3a ^f3g _e3f d3e dede gf_7/8ed d2e2 gfed dcc_1/4B =e2dc  | 
w:   | 
_1/4B2c4cB c4 ^fga_1/4b c'2_bg ag=fe d2a2 g2fe d2cB A4  | 
w:   | 
A2f2 f2fe f4 c2f2 f2fe e3d agfe e3d dccd e3d  | 
w:   | 
dccd e3d dccd efga gfed dcc_1/4B edcd dcBA B2c2 B4  | 
w:   | 
g2fe d2a2 aggf feed dcc_1/4B eded dccB BABA A4 Afed  | 
w:   | 
c2d4c_1/4B A4 d2_e4ed d3^c g2g2 _bag^f feed d4  | 
w:   | 
^c2d4d2 d4 _edcd c2d2 e3d g2g2 _bag^f feed d4  | 
w:   | 
d2g2 g2g^f g4 c2g2 gagf g4 c'2_ba aggf edgf f4  | 
w:   | 
g3a ^f3g _e3f d3e dede gf_7/8ed d2e2 gfed dcc_1/4B =e2dc  | 
w:   | 
_1/4B2c4cB c4 ^fga_1/4b c'2_bg ag=fe d2a2 g2fe d2cB A4  | 
w:   | 
c2d4c_1/4B A4 e3d d3c c3B cBBA A3f edcB A4  | 
w:   | 
G2A4_1/4B2 d4 c4 B4 A3B dcBA G4 ABcd c2B2  | \
w:   | 
c2d4e2 f3e f2g2 a2g2 f2e2 feed d4 edef d4  | 
w:   | 
^f2g4_b2 a4 g4 =f4 e2d2 d2e2 gfed dcc_1/4B c4  | \
w:   | 
_1/4B3c d2e2 f2g2 agfe d2e2 d2c4B2 B2AB c2BA A4  | 
w:   | 
|


